32x32/apps/Ri-li.svg

<svg height="32" width="32" xmlns="http://www.w3.org/2000/svg"><rect height="28" opacity=".2" rx="1.4" width="28" x="2" y="3"/><rect fill="#52845f" height="28" rx="1.4" width="28" x="2" y="2"/><path d="m7.7 11c-.911 0-1.7.774-1.7 1.697v6.607c0 .923.789 1.708 1.7 1.696h8.3v10h3v-11.6a1.4 1.4 0 0 0 -1.4-1.4h-8.6v-4h14v17h3v-18.303c0-.923-.789-1.697-1.7-1.697z" opacity=".2"/><path d="m7.7 10c-.911 0-1.7.774-1.7 1.697v6.607c0 .923.789 1.708 1.7 1.696h8.3v10h3v-11.6a1.4 1.4 0 0 0 -1.4-1.4h-8.6v-4h14v17h3v-18.303c0-.923-.789-1.697-1.7-1.697z" fill="#fbc295"/><g fill="#f4f4f7"><path d="m3.4 2c-.775 0-1.4.625-1.4 1.4v1c0-.775.625-1.4 1.4-1.4h25.2c.775 0 1.4.625 1.4 1.4v-1c0-.775-.625-1.4-1.4-1.4z" opacity=".2"/><path d="m7.7 10c-.911 0-1.7.774-1.7 1.697v1c0-.923.789-1.697 1.7-1.697h16.6c.911 0 1.7.774 1.7 1.697v-1c0-.923-.789-1.697-1.7-1.697zm1.3 7v1h8.6a1.4 1.4 0 0 1 1.4 1.4v-1a1.4 1.4 0 0 0 -1.4-1.4z" opacity=".2"/></g></svg>

<svg height="32" width="32" xmlns="http://www.w3.org/2000/svg">
    <rect height="28" opacity=".2" rx="1.4" width="28" x="2" y="3"/>
    <rect fill="#52845f" height="28" rx="1.4" width="28" x="2" y="2"/>
    <path d="M7.7 11c-.911 0-1.7.774-1.7 1.697v6.607c0 .923.789 1.708 1.7 1.696H16v10h3V19.4a1.4 1.4 0 0 0-1.4-1.4H9v-4h14v17h3V12.697c0-.923-.789-1.697-1.7-1.697z" opacity=".2"/>
    <path d="M7.7 10c-.911 0-1.7.774-1.7 1.697v6.607c0 .923.789 1.708 1.7 1.696H16v10h3V18.4a1.4 1.4 0 0 0-1.4-1.4H9v-4h14v17h3V11.697c0-.923-.789-1.697-1.7-1.697z" fill="#fbc295"/>
    <g fill="#f4f4f7">
        <path d="M3.4 2C2.625 2 2 2.625 2 3.4v1C2 3.625 2.625 3 3.4 3h25.2c.775 0 1.4.625 1.4 1.4v-1c0-.775-.625-1.4-1.4-1.4zM7.7 10c-.911 0-1.7.774-1.7 1.697v1C6 11.774 6.789 11 7.7 11h16.6c.911 0 1.7.774 1.7 1.697v-1c0-.923-.789-1.697-1.7-1.697zM9 17v1h8.6a1.4 1.4 0 0 1 1.4 1.4v-1a1.4 1.4 0 0 0-1.4-1.4z" opacity=".2"/>
    </g>
</svg>
